X:1
T:All to Thee
T:All to Thee
T:S. J. Perry
T:Anthony Johnson Showalter, 1888
T:Public Domain Courtesy of the Cyber Hymnal™
C:S. J. Perry
Z:Public Domain
Z:Courtesy of the Cyber Hymnal™
%%score ( 1 2 ) ( 3 4 )
L:1/8
Q:1/4=100
M:4/4
K:A
V:1 treble 
V:2 treble 
V:3 bass 
V:4 bass 
V:1
 [Ec]>[DB] | [CA]2 [CA]2 [DB]>[FA] [FA]>[DF] | [CE]6 [B,G]>[CA] | [DB]6 [CA]>[DB] | %4
w: 1.~Sav- ior,|may we give our hearts to|Thee, All to|Thee, all to|
w: 2.~Thou didst|give Thy- self that we might|be All to|Thee, all to|
w: 3.~When we’ve|crossed death’s dark and storm- y|sea, All to|Thee, all to|
 [Ec]6 [Ec]>[DB] | [CA]2 [CA]2 [DB]>[FA] [FA]>[DF] | [CE]6 [B,G]>[CA] | %7
w: Thee; All we|are and all we hope to|be, All to|
w: Thee; And by|grace di- vine our love shall|be, All to|
w: Thee; May our|songs of tri- umph ev- er|be, All to|
 [DB]4- [DB]>[DE] [DF]>[DG] | [CA]6 ||"^Refrain" [Ec]>[DB] | [CA]6 [CA]>[EG] | [DF]6 [EG]>[DF] | %12
w: Thee, * yes all to|Thee.||||
w: Thee, * yes, all to|Thee.|All to|Thee, all to|Thee, Bless- èd|
w: Thee, * yes, all to|Thee.||||
 [CE]2 [EA]2 [Ac]2 [Ac]2 | B6 c>B | (z2 B>)A x6 | (z3/2 [EG]>)[DF] x7 | [CE]2 [EA]2 [Ac]3 [GB] | %17
w: |||||
w: Lord, ’tis all to|Thee; All to|* Thee,|* all|to Thee, Bless- èd|
w: |||||
 [EA]6 |] %18
w: |
w: Lord,|
w: |
V:2
 x2 | x8 | x8 | x8 | x8 | x8 | x8 | x8 | x6 || x2 | x8 | x8 | x8 | (G>GG>G G2) x2 | (A6 C>C C2) | %15
 (F6 D<DD/ D2) | x8 | x6 |] %18
V:3
 [A,,A,]>[A,,A,] | [A,,A,]2 [A,,A,]2 [D,F,]>[D,A,] [D,A,]>[D,A,] | [A,,A,]6 z2 | %3
w: |||
 z2 [E,G,]>[E,G,] [E,G,]2 z2 | z2 [A,,A,]>[A,,A,] [A,,A,]2 [A,,A,]>[A,,A,] | %5
w: ||
 [A,,A,]2 [A,,A,]2 [D,F,]>[D,A,] [D,A,]>[D,A,] | [A,,A,]6 z2 | %7
w: ||
 z2 [E,G,]>[E,G,] [E,G,]>[E,G,] [E,B,]>[E,B,] | [A,,A,]6 || z2 | z2 [A,,A,]>[A,,A,] [A,,A,]2 z2 | %11
w: |||All to Thee,|
 z3/2 [D,A,]/ [D,A,]>[D,A,] [D,A,]2 [D,A,]>[D,A,] | [A,,A,]2 [A,,C]2 [A,E]2 [A,E]2 | %13
w: yes, all to Thee, * *||
 [E,E]>[E,E] [E,E]>[E,E] [E,E]2 E>D | z2 [A,,A,]>[A,,A,] [A,,A,]2 D>C x2 | %15
w: * yes, all to Thee; * *|All to Thee, * *|
 D>[D,A,] [D,A,]>[D,A,] [D,A,]2 [D,A,]>[D,A,] x5/2 | [E,A,]2 [E,C]2 [E,E]3 [E,D] | [A,,C]6 |] %18
w: * yes, all to Thee, * *|||
V:4
 x2 | x8 | x8 | x8 | x8 | x8 | x8 | x8 | x6 || x2 | x8 | x8 | x8 | x8 | C2 x8 | x21/2 | x8 | x6 |] %18

